icons/square/48/feedreader.svg

<?xml version="1.0" encoding="UTF-8"?>
<svg width="48" height="48" version="1.1" viewBox="0 0 48 48.000001" xmlns="http://www.w3.org/2000/svg" xmlns:cc="http://creativecommons.org/ns#" xmlns:dc="http://purl.org/dc/elements/1.1/" xmlns:rdf="http://www.w3.org/1999/02/22-rdf-syntax-ns#">
 <metadata>
  <rdf:RDF>
   <cc:Work rdf:about="">
    <dc:format>image/svg+xml</dc:format>
    <dc:type rdf:resource="http://purl.org/dc/dcmitype/StillImage"/>
    <dc:title/>
   </cc:Work>
  </rdf:RDF>
 </metadata>
 <g transform="translate(0 3.949e-5)">
  <path d="m1 43v0.25c0 2.216 1.784 4 4 4h38c2.216 0 4-1.784 4-4v-0.25c0 2.216-1.784 4-4 4h-38c-2.216 0-4-1.784-4-4zm0 0.5v0.5c0 2.216 1.784 4 4 4h38c2.216 0 4-1.784 4-4v-0.5c0 2.216-1.784 4-4 4h-38c-2.216 0-4-1.784-4-4z" style="opacity:.02"/>
  <path d="m1 43.25v0.25c0 2.216 1.784 4 4 4h38c2.216 0 4-1.784 4-4v-0.25c0 2.216-1.784 4-4 4h-38c-2.216 0-4-1.784-4-4z" style="opacity:.05"/>
  <path d="m1 43v0.25c0 2.216 1.784 4 4 4h38c2.216 0 4-1.784 4-4v-0.25c0 2.216-1.784 4-4 4h-38c-2.216 0-4-1.784-4-4z" style="opacity:.1"/>
 </g>
 <rect transform="rotate(-90)" x="-47" y="1" width="46" height="46" rx="4" style="fill:#f3954c"/>
 <g transform="translate(0 3.949e-5)">
  <g transform="translate(0 -1004.4)">
   <path d="m1 1043.4v4c0 2.216 1.784 4 4 4h38c2.216 0 4-1.784 4-4v-4c0 2.216-1.784 4-4 4h-38c-2.216 0-4-1.784-4-4z" style="opacity:.1"/>
  </g>
 </g>
 <path d="m12 11v5h3a17 17 0 0 1 17 17v3h5v-3a22 22 0 0 0 -22 -22zm0 10v5h2.5c4.142 0 7.5 3.358 7.5 7.5v2.5h5v-2.5c0-6.904-5.596-12.5-12.5-12.5h-2.5m3 9a3 3 0 0 0 -3 3 3 3 0 0 0 3 3 3 3 0 0 0 3 -3 3 3 0 0 0 -3 -3z" style="opacity:.1"/>
 <g transform="translate(0,-2)">
  <circle cx="15" cy="34" r="3" style="fill:#f9f9f9"/>
  <path d="m12 22v5h2.5c4.142 0 7.5 3.358 7.5 7.5v2.5h5v-2.5c0-6.904-5.596-12.5-12.5-12.5" style="fill:#f9f9f9"/>
  <path d="m12 12v5h3a17 17 0 0 1 17 17v3h5v-3a22 22 0 0 0 -22 -22z" style="fill:#f9f9f9"/>
 </g>
</svg>

<?xml version="1.0" encoding="UTF-8" standalone="no"?>
<svg
   xmlns:dc="http://purl.org/dc/elements/1.1/"
   xmlns:cc="http://creativecommons.org/ns#"
   xmlns:rdf="http://www.w3.org/1999/02/22-rdf-syntax-ns#"
   xmlns:svg="http://www.w3.org/2000/svg"
   xmlns="http://www.w3.org/2000/svg"
   xmlns:sodipodi="http://sodipodi.sourceforge.net/DTD/sodipodi-0.dtd"
   xmlns:inkscape="http://www.inkscape.org/namespaces/inkscape"
   width="48"
   height="48"
   version="1.1"
   viewBox="0 0 48 48.000001"
   id="svg30"
   sodipodi:docname="feedreader.svg"
   inkscape:version="0.92.1 r">
  <defs
     id="defs34" />
  <sodipodi:namedview
     pagecolor="#ffffff"
     bordercolor="#666666"
     borderopacity="1"
     objecttolerance="10"
     gridtolerance="10"
     guidetolerance="10"
     inkscape:pageopacity="0"
     inkscape:pageshadow="2"
     inkscape:window-width="1366"
     inkscape:window-height="694"
     id="namedview32"
     showgrid="true"
     inkscape:zoom="19.666667"
     inkscape:cx="9.4516534"
     inkscape:cy="17.004268"
     inkscape:window-x="0"
     inkscape:window-y="0"
     inkscape:window-maximized="1"
     inkscape:current-layer="svg30">
    <inkscape:grid
       type="xygrid"
       id="grid36" />
  </sodipodi:namedview>
  <metadata
     id="metadata2">
    <rdf:RDF>
      <cc:Work
         rdf:about="">
        <dc:format>image/svg+xml</dc:format>
        <dc:type
           rdf:resource="http://purl.org/dc/dcmitype/StillImage" />
        <dc:title />
      </cc:Work>
    </rdf:RDF>
  </metadata>
  <g
     transform="translate(0 3.949e-5)"
     id="g10">
    <path
       d="m1 43v0.25c0 2.216 1.784 4 4 4h38c2.216 0 4-1.784 4-4v-0.25c0 2.216-1.784 4-4 4h-38c-2.216 0-4-1.784-4-4zm0 0.5v0.5c0 2.216 1.784 4 4 4h38c2.216 0 4-1.784 4-4v-0.5c0 2.216-1.784 4-4 4h-38c-2.216 0-4-1.784-4-4z"
       style="opacity:.02"
       id="path4" />
    <path
       d="m1 43.25v0.25c0 2.216 1.784 4 4 4h38c2.216 0 4-1.784 4-4v-0.25c0 2.216-1.784 4-4 4h-38c-2.216 0-4-1.784-4-4z"
       style="opacity:.05"
       id="path6" />
    <path
       d="m1 43v0.25c0 2.216 1.784 4 4 4h38c2.216 0 4-1.784 4-4v-0.25c0 2.216-1.784 4-4 4h-38c-2.216 0-4-1.784-4-4z"
       style="opacity:.1"
       id="path8" />
  </g>
  <rect
     transform="rotate(-90)"
     x="-47"
     y="1"
     width="46"
     height="46"
     rx="4"
     style="fill:#f3954c"
     id="rect12" />
  <g
     transform="translate(0 3.949e-5)"
     id="g18">
    <g
       transform="translate(0 -1004.4)"
       id="g16">
      <path
         d="m1 1043.4v4c0 2.216 1.784 4 4 4h38c2.216 0 4-1.784 4-4v-4c0 2.216-1.784 4-4 4h-38c-2.216 0-4-1.784-4-4z"
         style="opacity:.1"
         id="path14" />
    </g>
  </g>
  <path
     d="m 12,11 v 5 h 3 a 17,17 0 0 1 17,17 v 3 h 5 V 33 A 22,22 0 0 0 15,11 Z m 0,10 v 5 h 2.5 c 4.142,0 7.5,3.358 7.5,7.5 V 36 h 5 V 33.5 C 27,26.596 21.404,21 14.5,21 H 12 m 3,9 a 3,3 0 0 0 -3,3 3,3 0 0 0 3,3 3,3 0 0 0 3,-3 3,3 0 0 0 -3,-3 z"
     style="opacity:0.1"
     id="path20"
     inkscape:connector-curvature="0" />
  <g
     transform="translate(0,-2)"
     id="g28">
    <circle
       cx="15"
       cy="34"
       r="3"
       style="fill:#f9f9f9"
       id="circle22" />
    <path
       d="m 12,22 v 5 h 2.5 c 4.142,0 7.5,3.358 7.5,7.5 V 37 h 5 V 34.5 C 27,27.596 21.404,22 14.5,22"
       style="fill:#f9f9f9"
       id="path24"
       inkscape:connector-curvature="0" />
    <path
       d="m 12,12 v 5 h 3 a 17,17 0 0 1 17,17 v 3 h 5 V 34 A 22,22 0 0 0 15,12 Z"
       style="fill:#f9f9f9"
       id="path26"
       inkscape:connector-curvature="0" />
  </g>
</svg>
